!!!OTL: ROSENSTOCK HOLDERBLUETH
!!!ARE: Europa, Mitteleuropa, Deutschland, Schwaben
!!!SCT: F0203A
!!!YEM: Copyright 1995, estate of Helmut Schaffrath.
**kern
*ICvox
*Ivox
*M3/4
*k[]
*C:
=1
{4.e
8d
8c
8E
=2
4A
8G
8F
4D}
=3
{4A
8G
8F
4D
=4
4A
8G
8E
4C}
=5
{4.e
8d
8c
8E
=6
4A
8G
8F
4D}
=7
{4G
4A
4B
=8
2c
4r}
=9
{8f
8e
2d
=10
8e
8d
2c}
=11
{4G
4A
4B
=12
8c
8B
8c
8d
4e}
=13
{8f
8e
2d
=14
8e
8d
2c}
=15
{4G
4A
4B
=16
2c
4r}
==
!!!AGN: Tanz - Lied, Liebe
!!!ONB: ESAC (Essen Associative Code) Database: FINK
!!!AMT: simple triple
!!!AIN: vox
!!!EED: Helmut Schaffrath
!!!EEV: 1.0
*-
